X:1
T:Handful Of Keys
T:Handful Of Keys
T:Music by Thomas Waller
T:Public Domain in the EU and Canada
T:Public Domain in the EU and Canada
T:Public Domain in the EU and Canada
T:Public Domain in the EU and Canada
T:Public Domain in the EU and Canada
T:Public Domain in the EU and Canada
T:Public Domain in the EU and Canada
T:Public Domain in the EU and Canada
T:Public Domain in the EU and Canada
T:Public Domain in the EU and Canada
T:Public Domain in the EU and Canada
T:Public Domain in the EU and Canada
C:Thomas ‘Fats’ Waller
Z:Public Domain in the EU and Canada
%%score { ( 1 3 ) | ( 2 4 ) }
L:1/8
Q:1/4=250
M:2/2
K:G
V:1 treble nm="Piano" snm="Pno."
V:3 treble 
V:2 bass 
V:4 bass 
V:1
"G""^Bright"!f! z3/2 [be']<[ad'][be']/ [ad']>[ea][dg]>[Be] | [Ad]>[Be] [Ad]2 [Ad]4 | %2
"D7" z3/2 [fb]<[ea][Be]/ [Ad]>[FB][EA]>[FB] | [EA]>[FB] [EA]2 [EA]4 | %4
"D" [dfd'] [dfd']2 [dfd']"Gm" [dgd']2 [dgd']2 |"Ddim" [d^gd']2 [dgd']"D7"[dad']- [dad']2 d2 | %6
"D" [Dd] [Dd]2 [Dd]"Gm6" [Ed]2"Ddim" [=Fd]2 |"D7" [^Fd]2 z2 !^![cfad']2 z2 || %8
"G"!mf! z3/2 d<ef/ g>ab>c' | d' b2 [gbf']- [gbf']"Gdim" [g_be']3 |"D7" z3/2 d<ef/ g>a=b>c' | %11
 d' [ac']2 [g_bf']-"Gdim" [gbf'] [gbe']3 |"D7" z3/2 d<ef/ g>a=b>c' | [fd'] c'2 [db]- [db] [ca]3 | %14
"G" [gbd']>de>f (3efe"Gdim" d>f |"D7" (3efe d>d- d2 [fad']>d' |"G" [gb]>de>f g>ab>c' | %17
 d' b2 [gbf']- [gbf']"Gdim" [g_be']3 |"D7" z3/2 d<ef/ g>a=b>c' | %19
 d' [ac']2 [g_bf']-"Gdim" [gbf'] [gbe']3 |"D7" z3/2 d<ef/ g>a=b>c' | %21
 [fd'] [ec']2 [db]- [db] [ca]3 |"G" [dg]!>![dg]- [dg]>_B"D7" =B>d [^Ae]>d | %23
"G""F#" [Bdg]6!8va(! [^a^c'f']2 |"B7" [b^d'f'b'][bd'f'b']- [bd'f'b']>^g' [ad'f']>g' [ad'f']2 | %25
 [^d'f'b']2 f'b- b2 [d'f'b']2!8va)! |"E7""^loco" [=d^ge'] [dge']2 [dge'] [dae']2"E5b7" [d^ae']2 | %27
"E7" [d^gbe']6 [df]2 |"A7" [=G^ca][Gca]- [Gca]>f [Gce]>f [Gce]2 | [egae']2 ^c'[^cgb]- [cgb] [ca]3 | %30
"D7" z3/2 f'<e'f'/"Ddim" (3e'^f'e' d'>c' |"D7" (3bc'b a>f (3efe d2 |"G" z3/2 d<ef/ g>ab>c' | %33
 d' b2 [gbf']- [gbf']"Gdim" [g_be']3 |"D7" z3/2 d<ef/ g>a=b>c' | %35
 d' [ac']2 [g_bf']-"Gdim" [gbf'] [gbe']3 |"D7" z3/2 d<ef/ g>a=b>c' | %37
 [fd'] [ec']2 [db]- [db] [ca]3 |"G" [Bdg]>dB>d"Gdim" _B>d"Cm"A>d- | %39
"G" [G=Bd]2"Gdim" z !>![cfad']-"D7" [cfad']2 z2 ||"G"!f!!8va(! z3/2 d'<e'f'/ g'>a'b'>c'' | %41
 d'' b'2 [g'b'f'']-"Gdim" [g'b'f''] [g'_b'e'']3 |"D7" z3/2 d'<e'f'/"G7" g'>a'=b'>c'' | %43
"D7" d'' c''2 [g'_b'f'']-"Gdim" [g'b'f''] [g'b'e'']3 |"D7" z3/2 d'<e'f'/"G7" g'>a'=b'>c'' | %45
"D7" [^f'd''] [e'c'']2 [d'b']- [d'b'] [c'a']3 |"G" [g'b'd'']>d'e'>f' (3e'f'e'"Gdim" d'>f' | %47
"D7" (3e'f'e' d'>f' (3e'f'e' d'2 |"G" z3/2 d'<e'f'/ g'>a'b'>c'' | %49
 d'' b'2 [g'b'f'']-"Gdim" [g'b'f''] [g'_b'e'']3 |"D7" z3/2 d'<e'f'/"G7" g'>a'=b'>c'' | %51
"D7" d'' c''2 [g'_b'f'']-"Gdim" [g'b'f''] [g'b'e'']3 |"D7" z3/2 d'<e'f'/"G7" g'>a'=b'>c'' | %53
"D7" [^f'd''] [e'c'']2 [d'b']- [d'b'] [c'a']3!8va)! |"G""^loco" g'>^ab>^c'"D7" d' [=ae']2 d' | %55
"G" [bg']4"F#"!8va(! [^a^c'f']3!mp! ^d'' |"B7" (3!>!^c''^d''c'' b'>b' (3!>!^g'b'g' f'>f' | %57
"A7" (3!>!e'f'e' c'>b-"B7" b[^d'f'b']- [d'f'b']>^g' | %58
"E7" (3!>!f'^g'f' e'>^c' (3!>!bc'b ^g>f!8va)! |"E""^loco" (3!>!efe Be- e2 e>^c' | %60
"A7" (3!>!b^c'b a>c' (3!>!bc'b a>c' | (3!>!b^c'b a>c' (3!>!bc'b a>f' | %62
"D7" (3!>!e'f'e' d'>=c' (3!>!bc'b a>f | (3!>!efe e>d- d !>![cdfbd']3 | %64
"G"!8va(! z3/2 d'<e'f'/ g'>a'b'>c'' | d'' b'2 [g'b'f'']- [g'b'f'']"Gdim" [g'_b'e'']3 | %66
"D7" z3/2 d'<e'f'/"G7" g'>a'=b'>c'' |"D7" d'' a'2 [g'_b'f'']-"Gdim" [g'b'f''] [g'b'e'']3 | %68
"D7" z3/2 d'<e'f'/"G7" g'>a'=b'>c'' |"D7" [^f'd''] [e'c'']2 [d'b']- [d'b'] [c'a']3 | %70
"G" (3g'a'g' d'>b"D7" [ae'] c'2 e' |"G" [bd'g']2!8va)!"^loco" z2 z !>!G3 || %72
!f! !^![B,DG][B,DG]- [B,DG]2"Ab7" (3_A_BA- A2 | [_A,_A]2 [A,A]2"D7" [_B,_B]4 | %74
"G7"!<(! [=B,=FG] [B,FG]2 [B,FG]"G11" [CFA]2"F#/G" [^C^F^A]2!<)! |"G7"!ff! [D=FGB]4 z2 [Gg]>[Aa] || %76
[K:C]"C"!f! z [cgc']-"C7" [cgc']4 [dd']>[_e_e']- |"F" [ee']2 [cc']>[_e_e']"Fm" d'>c'"F" =a2 | %78
"C" [cegc']2 z2"F6" [dfc']2 z [cegc']- |"C" [cegc'][cegc']- [cegc']2 z [Gcg]- [Gcg][Ada]- | %80
 [Ada]2 [Aa]>^d"C7" e>g [Aa]2 |"F" [_e_e']2 [dd']"Fm" [ee']2 [dd']2 [cc']- | %82
"C" [cc'][c=ec']- [cec']>^d e>g [Aa]2 | [cegc']6 [cegc']2 |"E7" [ce^gc']2 [Bdgb]4 [cc']2 | %85
 [d^gbd']2 [dgbd']4 [ee']2 |"Am7" [cc']2 [cc']>^d"E7" e>c' [Bb]2 |"A7" [G^cea]6 [Aa]2 | %88
"D7" [=cd^fd'] [cdfd']2 a [cdfc']4 | [Bd^fb] [Bdf]2 [Bdfb]- [Bdfb] [Adfa]3 | z8 | z8 | %92
"C" z2 [cegc']2- [cegc']!>![cea]- [cea]>g | [cegc']>^d e>[^cegb]-"A7" [cegb]2 [Acea]>^g | %94
"G7" a>^c ^g>a [Be=g]>a [Be]>g | [ABdf]4 z [ebe']2 [_e_b_e']- | %96
"Eb" [ebe']"Gm" [d_bd']3"Eb" z [_eb_e']2"Gm" [=eb=e']- | %97
"Gdim" [ebe']"Gm6" [d_bd']3"C7" z [_e_e']2 [=eb=e']- | %98
"F" [ebe'] [dad']3"Fm" z [_e_b_e']2 [=eb=e']- | [ebe'] [d_ad']3 z [_e_a_e']2 [dad']- | %100
 [dad'] [c_ac']3 [cac']2 [_ea_e']2 | [d_ad']4- [dad'] [_e_b_e']2 [dgd']- | %102
"C" [dgd'] [cgc']3 [cgc']2 [_B_b]2 |"A7" [=B=e=b]4- [Beb] [A^cea]2 [d=fad']- | %104
"F" [dfad'][cfac']- [cfac']>a"G11" [cfac']2"Cdim" [c^d^fa]2 | %105
"Am7" [Gceg]>^d e>[A^cea]-"A7" [Acea]2 g>e |"G" [Bdg]>^c"F" d>[Bdfa]-"G7" [Bdfa]>g [Bdfa]2 | %107
"C6" [cegc']4"D7" !^![cd^fad']4 ||[K:G]"G"!mf! z3/2 D<EF/ G>AB>c | %109
 d B2 [GBf]- [GBf]"Gdim" [G_Be]3 |"D7" z3/2 =d<ef/ g>a=b>c' | %111
 d' [ac']2 [g_bf']-"Gdim" [gbf'] [gbe']3 |"D7"!8va(! z3/2 d'<e'f'/ g'>a'=b'>c'' | %113
 [f'd''] [e'c'']2 [d'b']- [d'b'] [c'a']3 |"G" [g'b'd'']>d'e'>f' g'>a'"Gdim"b'>c'' | %115
"D7" [f'a'd''] [e'g'c'']2 [d'f'b']2"^loco" [c'e'a']3!8va)! |"G" z3/2 D/EF/ G3/2AB>c | %117
 d B2 [GBf]- [GBf]"Gdim" [G_Be]3 |"D7" z3/2 =d<ef/ g>a=b>c' | %119
 d' [ac']2 [g_bf']-"Gdim" [gbf'] [gbe']3 |"D7" z3/2 d<ef/ g>a=b>c' | %121
 [fd'] [ec']2 [db]- [db] [ca]3 |"G" [Bdg]>^A B>!>!d-"D7" d>!>![=Ace]- [Ace]>d | %123
"G""F#" [Bdg]6 [^A^cf]2 |"B7"!f! [AB^dfb][ABdfb]- [ABdfb]>^g [ABdf]>g [ABdf]2 | %125
 [AB^dfb]2 fB- B>[ABdfb]- [ABdfb]2 | x4"_r.h."[I:staff +1] ^G,2 D2 |[I:staff -1] x4"^r.h." f4 | %128
"A7" [B^ca][Bca]- [Bca]>f [Bce]>f [Bce]2 | [^ca]2 ^c'[cgb]- [cgb] [cga]3 | x4"^r.h." F,2 =C2 | %131
 x4"^r.h." e4 |"G"!mf! z3/2 d<ef/ g>ab>c' | d' [gb]2 [gbf']- [gbf']"Gdim" [g_be']3 | %134
"D7" z3/2 =d<ef/ g>a=b>c' | d' [ac']2 [g_bf']-"Gdim" [gbf'] [egc']3 |"D7" z3/2 d<ef/ g>a=b>c' | %137
 [fd'] [ec']2 [db]- [db] [ca]3 ||!f! z4 z2"G7" [B,D=FG]2 | z4"Cm" [A,C_EG]2 z2 | %140
 z4 z2"D7" [A,CDF]2 |"G" z2"G13" [=FABe]6 |] %142
V:2
 [G,B,D]8- | [G,B,D]6 !^![G,B,D]2 | [D,F,A,C]8- | [D,F,A,C]8 | %4
[K:treble] [DA] [DA]2 [DA] [D_B]2 [DB]2 | [D=B]2 [DB][Dc]- [Dc]2 [Dc]2 | %6
[K:bass] [D,A,] [D,A,]2 [D,A,] [D,_B,]2 [D,=B,]2 | [D,C]2 z2 [D,,D,]2 z2 || %8
 [G,,D,B,]2 [D,B,]2 D,,2 [D,B,]2 | [G,,D,B,]2 [D,B,]2 [B,,D]2 [_B,,^C]2 | %10
 [A,,F,=C]2 [F,C]2 D,,2 [F,C]2 | [A,,F,C]2 [F,C]2 [_B,,^C]2 [B,,C]2 | %12
 [A,,F,=C]2 [F,C]2 D,,2 [F,C]2 | [A,,F,C]2 [F,C]2 D,,2 [F,C]2 | %14
 [G,,D,B,]2 [D,B,]2 [B,,D]2 [_B,,^C]2 | [A,,F,=C]2 [F,C]2 D,,2 [F,C]2 | %16
 [G,,D,B,]2 [D,B,]2 D,,2 [D,B,]2 | [G,,D,B,]2 [D,B,]2 [B,,D]2 [_B,,^C]2 | %18
 [A,,F,=C]2 [F,C]2 D,,2 [F,C]2 | [A,,F,C]2 [F,C]2 [_B,,^C]2 [B,,C]2 | %20
 [A,,F,=C]2 [F,C]2 D,,2 [F,C]2 | [A,,F,C]2 [F,C]2 D,,2 [F,C]2 | [G,,D,B,]2 [D,B,]2 D,,2 [F,C]2 | %23
 [G,,D,B,]2 [D,B,]2 [F,,^C,^A,]2 [F,,C,A,]2 | [F,,^D,=A,]2 [A,^DF]2 [F,,,F,,]2 [A,DF]2 | %25
 [B,,F,^D]2 [A,DF]2 F,,2 [A,DF]2 | [E,,B,,^G,]2 [G,B,=D]2 [B,,,B,,]2 [G,B,D]2 | %27
 [E,,B,,^G,]2 [G,B,D]2 [B,,,B,,]2 [G,B,D]2 | [E,,=G,]2 [A,^CE]2 [A,,,A,,]2 [A,CE]2 | %29
 [E,,G,]2 [A,^CE]2 [A,,,A,,]2 [A,CE]2 | [D,,D,]2 [A,,F,=C]2 [^G,,=F,B,]2 [G,,F,B,]2 | %31
 [A,,^F,C]2 [A,,F,C]2 D,,2 [D,C]2 | [G,,D,B,]2 [D,B,]2 D,,2 [D,B,]2 | %33
 [G,,D,B,]2 [D,B,]2 [B,,D]2 [_B,,^C]2 | [A,,F,=C]2 [F,C]2 D,,2 [F,C]2 | %35
 [A,,F,C]2 [F,C]2 [_B,,^C]2 [B,,C]2 | [A,,F,=C]2 [F,C]2 D,,2 [F,C]2 | %37
 [A,,F,C]2 [F,C]2 D,,2 [F,C]2 | [G,,B,]2 [D,=F]2 [^C,E]2 [=C,_E]2 | %39
 [B,,D]2 [_B,,^C]2 [A,,=C]2 !>!D,,2 || [G,,D,B,]2 [D,B,]2 D,,2 [D,B,]2 | %41
 B,,2 [G,D]2 _B,,2 [G,^C]2 | A,,2 [F,=C]2 G,,2 [=F,=B,]2 | ^F,,2 [^F,C]2 _B,,2 [G,^C]2 | %44
 A,,2 [F,=C]2 G,,2 [F,=B,]2 | [A,,^F,C]2 [F,C]2 D,,2 [F,C]2 | %46
 [G,,D,B,]2 [D,B,]2 [B,,D]2 [_B,,^C]2 | [A,,F,=C]2 [F,C]2 D,,2 [F,C]2 | %48
 [G,,D,B,]2 [D,B,]2 D,,2 [D,B,]2 | B,,2 [G,D]2 _B,,2 [G,^C]2 | A,,2 [F,=C]2 G,,2 [=F,=B,]2 | %51
 ^F,,2 [^F,C]2 _B,,2 [G,^C]2 | A,,2 [F,=C]2 G,,2 [=F,B,]2 | [A,,^F,C]2 [F,C]2 D,,2 [F,C]2 | %54
 G,,2 [D,B,]2 A,,2 [F,=C]2 | G,,2 [D,B,]2 F,,2 [^C,^A,]2 | A,2- [A,B,^DF]2 F,2- [F,A,B,D]2 | %57
 E,2- [E,G,A,^C]2 ^D,2- [D,F,A,B,]2 | =D,2- [D,E,^G,B,]2 B,,2 [D,E,G,B,]2 | %59
 E,2 [^G,B,E]2 B,,2 [G,B,E]2 | A,2- [A,^CE=G]2 G,2- [G,A,CE]2 | %61
 E,2- [E,G,A,^C]2 ^C,2- [C,E,G,A,]2 | A,2- [A,=CDF]2 F,2- [F,A,CD]2 | %63
 D,2- [D,F,A,C]2 D,,2 [D,F,A,C]2 | [G,,D,B,]2 [D,B,]2"D7" C,2 [F,A,D]2 | %65
 B,,2 [G,D]2 _B,,2 [G,^C]2 | A,,2 [F,=C]2 G,,2 [=F,=B,]2 | ^F,,2 [^F,C]2 _B,,2 [G,^C]2 | %68
 A,,2 [F,=C]2 G,,2 [=F,B,]2 | [A,,^F,C]2 [F,C]2 D,,2 [F,C]2 | [G,,D,B,]2 [D,B,]2 D,,2 [F,C]2 | %71
 [G,,G,]2 [D,,D,]2 [G,,,G,,]2 z2 || [G,,G,]4 [_A,,_G,]4- | [A,,G,]8 | %74
 [G,,=F,] [G,,F,]2 [G,,F,] [G,,F,]2 [G,,^F,]2 | [G,,G,]4 !>![G,,,G,,]4 || %76
[K:C] [C,C]2 [B,,B,]2 [_B,,_B,]2 [B,CE]2 | [A,,A,]2 [A,CF]2 [_A,,_A,]2 [=A,C=E]2 | %78
 [G,,G,]2 [G,CE]2 [F,,F,]2 [A,CDF]2 | [E,,E,]2 [G,CE]2 [D,,D,]2 [G,CE]2 | %80
 [C,C]2 [B,,B,]2 [_B,,_B,]2 [CE]2 | [A,,A,]2 [A,CF]2 [_A,,_A,]2 [A,CF]2 | %82
 [G,,G,]2 [G,CE]2 G,,2 [G,CE]2 | [C,,C,]2 [G,CE]2 G,,2 [G,CE]2 | %84
 [E,,E,]2 [^G,B,D]2 [^A,,,^A,,]2 [G,B,D]2 | [B,,,B,,]2 [^G,B,D]2 [E,,,E,,]2 [G,B,D]2 | %86
 [A,,,A,,]2 [G,CE]2 [E,,E,]2 [^G,B,D]2 | A,,2 [A,^CE]2 E,,2 [A,CE]2 | %88
 [D,,D,]2 [^F,A,CD]2 [A,,,A,,]2 [F,A,CD]2 | A,,2 [A,C^F]2 [D,,D,]2 [A,CF]2 | %90
"_Tacet" G,,>G, [=F,,=F,]2 [E,,E,]>[E,,E,] [D,,D,]2 | %91
 [C,,C,]>[C,,C,] [B,,,B,,]>[B,,,B,,] [A,,,A,,]>[A,,,A,,] [G,,,G,,]2"_*" | %92
 [C,,C,]2 [G,CE]2 G,,2 [G,CE]2 | [C,,C,]2 [G,CE]2 [E,,G,]2 [G,^CE]2 | %94
 [G,,B,]2 [=G,B,DF]2 [D,,D,]2 [G,B,DF]2 | [D,,F,]2 [G,B,DF]2 [G,,,G,,]2 [G,B,DF]2 | %96
 [_E,,_E,]2 [D,,D,]2 [E,,E,]2 [D,,D,]2 | [_D,,_D,]2 [G,_B,E]2 [C,,C,]2 [G,B,E]2 | %98
 [C,,C,]2 [A,CF]2 [F,,_A,]2 [A,CF]2 | [C,,C,]2 [_A,CF]2 [F,,A,]2 [A,CF]2 | %100
 [F,,F,]2 [_A,CF]2 [C,,C,]2 [A,CF]2 | [F,,F,]2 [_A,CF]2 [C,,C,]2 [A,CF]2 | %102
 [E,,G,]2 [G,CE]2 [C,,C,]2 [_B,,,_B,,]2 | [A,,,A,,]2 [G,^CE]2 [^C,,^C,]2 [G,CE]2 | %104
 [=F,,,=F,,]2 [^F,,,^F,,]2 [G,,,G,,]2 [^G,,,^G,,]2 | [A,,,A,,]2 [G,CE]2 [A,,,A,,]2 [G,^CE]2 | %106
 [B,DG]2 [A,=CF]2 [G,B,E]2 [F,B,D]2 | [E,G,A,C]4 !^![D,,D,]4 ||[K:G] G,,2 [D,B,]2 D,,2 [D,B,]2 | %109
 B,,2 [G,D]2 [B,,D]2 [_B,,_D]2 | A,,2 [F,C]2 D,,2 [F,C]2 | A,,2 [F,C]2 [_B,,^C]2 [B,,C]2 | %112
 A,,2 [F,=C]2 D,,2 [F,C]2 | A,,2 [F,C]2 D,,2 [F,C]2 | G,,2 [D,B,]2 [B,,D]2 [_B,,^C]2 | %115
 A,,2 [F,=C]2 D,,2 [F,C]2 | G,,2 [D,B,]2 D,,2 [D,B,]2 | B,,2 [G,D]2 [B,,D]2 [_B,,_D]2 | %118
 A,,2 [F,C]2 D,,2 [F,C]2 | A,,2 [F,C]2 [_B,,^C]2 [B,,C]2 | A,,2 [F,=C]2 D,,2 [F,C]2 | %121
 A,,2 [F,C]2 D,,2 [F,C]2 | G,,2 [D,B,]2 =A,,2 [F,C]2 | B,,2 [G,D]2 ^A,,2 [F,^C]2 | %124
 =A,,2 [A,^DF]2 F,,2 [A,DF]2 | B,,2 [A,^DF]2 F,,2 [A,DF]2 |"^l.h.""_Tacet" E,,2 B,,2 x4 | %127
"^l.h."[I:staff -1] F2 ^G2[I:staff +1] x4"_*" | E,,2 [A,^CEG]2 A,,2 [A,CEG]2 | %129
 E,2 [A,^CEG]2 A,,2 [A,CEG]2 |"^l.h.""_Tacet" D,,2{/^G,,} A,,2 x4 | %131
"^l.h."[I:staff -1] F2 A2[I:staff +1] x4"_*" | G,,2 [D,B,]2 D,,2 [D,B,]2 | %133
 B,,2 [G,D]2 [B,,D]2 [_B,,_D]2 | A,,2 [F,C]2 D,,2 [F,C]2 | A,,2 [F,C]2 [_B,,^C]2 [B,,C]2 | %136
 A,,2 [F,=C]2 D,,2 [F,C]2 | A,,2 [F,C]2 D,,2 [F,C]2 ||"_Tacet" G,,>G, F,,>F, z2"_*" =F,2 | %139
"_Tacet" E,,>E, z2 _E,2"_*" _E,,>"_Tacet"E, | D,,>D, _D,,>_D, z2"_*" D,2 | z2 [=F,A,B,E]6 |] %142
V:3
 x8 | x8 | x8 | x8 | x8 | x8 | x8 | x8 || x8 | x8 | x8 | x8 | x8 | x8 | x8 | x8 | x8 | x8 | x8 | %19
 x8 | x8 | x8 | x8 | x6!8va(! x2 | x8 | x8!8va)! | x8 | x8 | x8 | x8 | x8 | x2 x2 c2 x2 | x8 | x8 | %34
 x8 | x8 | x8 | x8 | x8 | x8 ||!8va(! x8 | x8 | x8 | x8 | x8 | x8 | x8 | x8 | x8 | x8 | x8 | x8 | %52
 x8 | x8!8va)! | x8 | x4!8va(! x4 | x8 | x8 | x8!8va)! | x8 | x8 | x8 | x8 | x8 |!8va(! x8 | x8 | %66
 x8 | x8 | x8 | x8 | x8 | x2!8va)! x6 || x4 [C_E]4 | x8 | x8 | x8 ||[K:C] x8 | x8 | x8 | x8 | x8 | %81
 x8 | x8 | x8 | x8 | x8 | x8 | x8 | x8 | x8 | x8 | x8 | x8 | x8 | x8 | x8 | x8 | x8 | x8 | x8 | %100
 x8 | x8 | x8 | x8 | x8 | x8 | x8 | x8 ||[K:G] x8 | x8 | x8 | x8 |!8va(! x8 | x8 | x8 | x8!8va)! | %116
 x8 | x8 | x8 | x8 | x8 | x8 | x8 | x8 | x8 | x8 | x8 | x8 | x8 | x8 | x8 | x8 | x8 | x8 | x8 | %135
 x8 | x8 | x8 || x8 | x8 | x8 | x8 |] %142
V:4
 x8 | x8 | x8 | x8 |[K:treble] x8 | x8 |[K:bass] x8 | x8 || x8 | x8 | x8 | x8 | x8 | x8 | x8 | x8 | %16
 x8 | x8 | x8 | x8 | x8 | x8 | x8 | x8 | x8 | x8 | x8 | x8 | x8 | x8 | x8 | x8 | x8 | x8 | x8 | %35
 x8 | x8 | x8 | x8 | x8 || x8 | x8 | x8 | x8 | x8 | x8 | x8 | x8 | x8 | x8 | x8 | x8 | x8 | x8 | %54
 x8 | x8 | x8 | x8 | x8 | x8 | x8 | x8 | x8 | x8 | x8 | x8 | x8 | x8 | x8 | x8 | x8 | x8 || x8 | %73
 x8 | x8 | x8 ||[K:C] x8 | x8 | x8 | x8 | x8 | x8 | x8 | x8 | x8 | x8 | x8 | x8 | x8 | x8 | x8 | %91
 x8 | x8 | x8 | x8 | x8 | x8 | x8 | x8 | x8 | x8 | x8 | x8 | x8 | x8 | x8 | x8 | x8 ||[K:G] x8 | %109
 x8 | x8 | x8 | x8 | x8 | x8 | x8 | x8 | x8 | x8 | x8 | x8 | x8 | x8 | x8 | x8 | x8 | x8 | x8 | %128
 x8 | x8 | x8 | x8 | x8 | x8 | x8 | x8 | x8 | x8 || G,,2 F,,2 =F,,4 | E,,2 _E,,4 E,,2 | %140
 D,,2 _D,,2 =D,,4 | !>![G,,,G,,]8 |] %142

